packages/sources/assets/src/assets/dwolla.svg

<svg width="58" height="40" viewBox="0 0 58 40" fill="none" xmlns="http://www.w3.org/2000/svg">
<rect x="0.5" y="0.5" width="57" height="39" rx="3.5" fill="white" stroke="#F3F3F3"/>
<path fill-rule="evenodd" clip-rule="evenodd" d="M24.7151 26.9033C24.3869 27.3056 24.1412 27.7682 23.9773 28.2912C23.8131 28.8145 23.7314 29.3648 23.7314 29.9424C23.7314 30.5203 23.8133 31.0709 23.9773 31.5938C24.1412 32.1168 24.3871 32.5773 24.7151 32.9756C25.043 33.3739 25.4548 33.6922 25.9509 33.9301C26.4462 34.1683 27.0222 34.2872 27.6781 34.2872C28.334 34.2872 28.9079 34.1683 29.3997 33.9301C29.8916 33.6922 30.3014 33.3739 30.6293 32.9756C30.9573 32.5775 31.2032 32.1168 31.3673 31.5938C31.5311 31.0711 31.6132 30.5203 31.6132 29.9424C31.6132 29.3648 31.5311 28.8145 31.3673 28.2912C31.2032 27.7682 30.9575 27.3056 30.6293 26.9033C30.3016 26.5013 29.8918 26.1813 29.3997 25.9428C28.9079 25.7049 28.334 25.5857 27.6781 25.5857C27.0222 25.5857 26.4464 25.7049 25.9509 25.9428C25.4548 26.1813 25.043 26.5013 24.7151 26.9033ZM11.768 26.833C11.1238 26.1498 10.1654 25.7927 8.89267 25.7616H6V34.1235H8.89267C10.1654 34.0922 11.1238 33.7351 11.768 33.0518C12.4123 32.3689 12.7342 31.3324 12.7342 29.9424C12.7342 28.5528 12.4123 27.5165 11.768 26.833ZM10.0464 33.2509C9.61292 33.3798 9.09563 33.4441 8.49474 33.4441H6.79626V26.4407H8.49474C9.09563 26.4407 9.61292 26.5052 10.0464 26.6339C10.4796 26.7628 10.8371 26.9675 11.118 27.2486C11.3989 27.5299 11.6057 27.8928 11.7387 28.338C11.8713 28.783 11.9376 29.318 11.9376 29.9424C11.9376 30.5672 11.8713 31.102 11.7387 31.547C11.6057 31.992 11.3991 32.3551 11.118 32.6362C10.8371 32.9173 10.4796 33.1222 10.0464 33.2509ZM13.7997 25.7616L15.6971 33.0814H15.7206L17.7583 25.7616H18.7536L20.8032 33.0814H20.8267L22.7357 25.7616H23.532L21.2248 34.1235H20.3815L18.2618 26.6399H18.2383L16.1302 34.1235H15.2635L12.9447 25.7616H13.7997ZM24.7093 31.2834C24.8302 31.7247 25.0176 32.1189 25.2715 32.4663C25.525 32.8139 25.851 33.093 26.2493 33.304C26.6476 33.5145 27.1237 33.6201 27.6781 33.6201C28.2326 33.6201 28.7069 33.5145 29.1011 33.304C29.4952 33.0932 29.8194 32.8141 30.0729 32.4663C30.327 32.1189 30.5142 31.7247 30.6355 31.2834C30.7558 30.8465 30.8168 30.3955 30.8167 29.9424C30.8167 29.4817 30.7565 29.033 30.6355 28.5958C30.5144 28.1586 30.327 27.7663 30.0729 27.4187C29.8194 27.0715 29.4952 26.7921 29.1011 26.5814C28.7069 26.3705 28.2326 26.2653 27.6781 26.2653C27.1237 26.2653 26.6476 26.3705 26.2493 26.5814C25.851 26.7921 25.525 27.0715 25.2715 27.4187C25.0176 27.7663 24.8302 28.1586 24.7093 28.5958C24.5879 29.0343 24.5268 29.4874 24.5277 29.9424C24.5277 30.3953 24.5879 30.8425 24.7093 31.2834ZM33.4164 33.4441V25.7616H32.6202V34.1235H38.1011V33.4441H33.4164ZM39.7055 25.7616V33.4441H44.3236L47.4117 25.7616H48.302L51.581 34.1235H50.726L49.707 31.5236H45.9008L44.8936 34.1235H44.3901H44.0505H38.9092V25.7616H39.7055ZM49.4377 30.8442L47.8217 26.5579L46.1469 30.8442H49.4377Z" fill="#2D2D48"/>
<path fill-rule="evenodd" clip-rule="evenodd" d="M29.3509 5.13035L35.6899 8.79012C35.9911 8.96395 36.1765 9.28532 36.1763 9.63304V16.9526C36.1764 17.3003 35.9909 17.6216 35.6897 17.7955L29.3507 21.4553C29.0496 21.6291 28.6787 21.6291 28.3776 21.4553L22.0386 17.7955C21.7375 17.6217 21.552 17.3004 21.552 16.9526V9.63304C21.552 9.28532 21.7374 8.96399 22.0386 8.79012L28.3778 5.13035C28.6789 4.95655 29.0498 4.95655 29.3509 5.13035ZM24.7087 15.6921V11.4629C24.7087 11.1152 24.8943 10.7939 25.1954 10.62L28.8644 8.50183V5.97327L22.5254 9.63304V16.9526L24.7087 15.6921ZM28.3776 12.4499C28.0764 12.6238 27.8909 12.9451 27.891 13.2928V17.5072L25.682 18.7825V11.4629L32.021 7.80315V10.3465L28.3776 12.4499ZM28.8644 20.6124L35.2032 16.9526L35.2034 9.63304L28.8644 13.2928V20.6124Z" fill="url(#paint0_linear_545_4254)"/>
<defs>
<linearGradient id="paint0_linear_545_4254" x1="28.1613" y1="28.003" x2="43.5566" y2="16.0335" gradientUnits="userSpaceOnUse">
<stop stop-color="#F3904A"/>
<stop offset="0.999" stop-color="#AA437F"/>
</linearGradient>
</defs>
</svg>

<svg width="58" height="40" fill="none" xmlns="http://www.w3.org/2000/svg"><rect x=".5" y=".5" width="57" height="39" rx="3.5" fill="#fff" stroke="#F3F3F3"/><path fill-rule="evenodd" clip-rule="evenodd" d="M24.715 26.903a4.12 4.12 0 0 0-.738 1.388 5.483 5.483 0 0 0-.246 1.651c0 .578.082 1.129.246 1.652.164.523.41.983.738 1.382.328.398.74.716 1.236.954.495.238 1.071.357 1.727.357.656 0 1.23-.119 1.722-.357a3.596 3.596 0 0 0 1.23-.954c.327-.398.573-.86.737-1.382a5.492 5.492 0 0 0 .246-1.652c0-.577-.082-1.128-.246-1.65a4.123 4.123 0 0 0-.738-1.389 3.57 3.57 0 0 0-1.23-.96c-.491-.238-1.065-.357-1.72-.357-.657 0-1.233.119-1.728.357a3.558 3.558 0 0 0-1.236.96Zm-12.947-.07c-.644-.683-1.603-1.04-2.875-1.071H6v8.361h2.893c1.272-.03 2.23-.388 2.875-1.071.644-.683.966-1.72.966-3.11s-.322-2.425-.966-3.109Zm-1.722 6.418c-.433.129-.95.193-1.551.193H6.796v-7.003h1.699c.6 0 1.118.064 1.551.193.434.129.791.334 1.072.615.28.28.488.644.62 1.089.133.445.2.98.2 1.604 0 .625-.067 1.16-.2 1.605-.132.445-.339.808-.62 1.09-.28.28-.638.485-1.072.614Zm3.754-7.49 1.897 7.32h.024l2.037-7.32h.996l2.05 7.32h.023l1.909-7.32h.796l-2.307 8.363h-.844l-2.12-7.484h-.023l-2.108 7.483h-.866l-2.32-8.361h.856Zm10.91 5.522c.12.442.308.836.561 1.183.254.348.58.627.978.838.399.21.875.316 1.43.316.554 0 1.028-.105 1.422-.316.394-.21.718-.49.972-.838.254-.347.441-.741.563-1.183a5.047 5.047 0 0 0 0-2.687 3.606 3.606 0 0 0-.563-1.177 2.846 2.846 0 0 0-.972-.838c-.394-.21-.868-.316-1.423-.316-.554 0-1.03.105-1.429.316a2.82 2.82 0 0 0-.977.838c-.254.347-.442.74-.563 1.177a5.03 5.03 0 0 0 0 2.688Zm8.706 2.161v-7.682h-.796v8.361h5.481v-.679h-4.685Zm6.29-7.682v7.682h4.618l3.088-7.682h.89l3.279 8.361h-.855l-1.019-2.6h-3.806l-1.007 2.6H38.91v-8.361h.796Zm9.732 5.082-1.616-4.286-1.675 4.286h3.29Z" fill="#2D2D48"/><path fill-rule="evenodd" clip-rule="evenodd" d="m29.35 5.13 6.34 3.66a.973.973 0 0 1 .486.843v7.32a.973.973 0 0 1-.486.843l-6.34 3.66a.973.973 0 0 1-.972 0l-6.34-3.66a.973.973 0 0 1-.486-.843v-7.32c0-.348.185-.669.487-.843l6.339-3.66a.973.973 0 0 1 .973 0Zm-4.64 10.562v-4.23c0-.347.185-.668.486-.842l3.67-2.118V5.973l-6.34 3.66v7.32l2.184-1.26Zm3.669-3.242a.973.973 0 0 0-.487.843v4.214l-2.209 1.275v-7.32l6.339-3.659v2.544l-3.643 2.103Zm.486 8.162 6.34-3.66V9.634l-6.34 3.66v7.32Z" fill="url(#a)"/><defs><linearGradient id="a" x1="28.161" y1="28.003" x2="43.557" y2="16.034" gradientUnits="userSpaceOnUse"><stop stop-color="#F3904A"/><stop offset=".999" stop-color="#AA437F"/></linearGradient></defs></svg>
